X:100
T:Julia Clifford's
R: polka
M: 2/4
L: 1/8
K: Edor
E/F/G AB | =cA AG | Ad dc | d2 d>e |
fd ed | cA Ad | c/B/A GE | D2 D2 :|
|: {e}fd ed | cA A2 | fg/f/ ec | d2 d2 |
{e}fd ed | cA Ad | c/B/A GE | D2 D2 :|

%%newpage
%%scale .75
%%staffsep 35

